X:1
T:St. Etheldreda, CM
T:Thomas Turton, 1860
T:St. Etheldreda, CM
T:Public Domain
C:Thomas Turton, 1860
Z:Public Domain
%%score ( 1 2 ) ( 3 4 )
L:1/8
M:4/4
K:F
V:1 treble 
V:2 treble 
V:3 bass 
V:4 bass 
V:1
 [CF]2 | [DF]2 [EG]2 [FA]2 [DG]2 | [CF]2 [CE]2 [CF]2 [EG]2 | [FA]2 [Fc]2 (DE) [FA]2 | [EG]6 [FA]2 | %5
 [FB]2 [Fd]2 [Ec]2 (CB,) | [A,F]2 [CB]2 [CA]2 [Fc]2 | [Fd]2 [FB]2 [FA]2 [EG]2 | F6 |] %9
V:2
 x2 | x8 | x8 | x4 B2 x2 | x8 | x6 E2 | x8 | x8 | F6 |] %9
V:3
 [F,A,]2 | [D,A,]2 [C,C]2 [F,C]2 [B,,B,]2 | [C,A,]2 [C,G,]2 [F,A,]2 [C,C]2 | %3
 [F,C]2 A,2 [G,B,]2 [F,C]2 | [C,C]6 [F,C]2 | [D,B,]2 [B,,B,]2 [C,G,]2 [C,G,]2 | %6
 [D,F,]2 [E,G,]2 F,2 [A,,C]2 | [B,,B,]2 [F,B,]2 (C3 B,) | [F,A,]6 |] %9
V:4
 x2 | x8 | x8 | x2 A,2 x4 | x8 | x8 | x4 F,2 x2 | x4 C,4 | x6 |] %9

